X: 10970
T: Drunk Begonias
R: jig
M: 6/8
K: Gminor
|:g2d dcd|efg fed|g2d dcd|edc ABc|
g2d dcd|efg fed|gdd fdd|BcA G3:|
|:FBB BAB|cdB cBA|F2B BAB|cde fBB|
FBB BAB|cdB c2g|gdd edc|ABA G3:|

